src/main/resources/icons/AllIcons/nodes/controller.svg

<!-- Copyright 2000-2021 JetBrains s.r.o. Use of this source code is governed by the Apache 2.0 license that can be found in the LICENSE file. -->
<svg xmlns="http://www.w3.org/2000/svg" width="16" height="16" viewBox="0 0 16 16">
  <g fill="none" fill-rule="evenodd">
    <path fill="#40B6E0" fill-opacity=".6" d="M15,8 C15,11.866 11.866,15 8,15 C4.134,15 1,11.866 1,8 C1,4.134 4.134,1 8,1 C11.866,1 15,4.134 15,8"/>
    <path fill="#231F20" fill-opacity=".7" d="M11.8232,5.5908 L10.0862,7.3278 L8.6722,5.9138 L10.4102,4.1768 C10.1272,4.0668 9.8222,3.9998 9.5002,3.9998 C8.1192,3.9998 7.0002,5.1188 7.0002,6.4998 C7.0002,6.8218 7.0662,7.1268 7.1772,7.4098 L4.1722,10.4138 L5.5862,11.8278 L8.5922,8.8228 C8.8732,8.9338 9.1782,8.9998 9.5002,8.9998 C10.8812,8.9998 12.0002,7.8808 12.0002,6.4998 C12.0002,6.1778 11.9332,5.8728 11.8232,5.5908"/>
  </g>
</svg>

<svg xmlns="http://www.w3.org/2000/svg" width="16" height="16" viewBox="0 0 16 16"><rect id="frame" width="16" height="16" fill="none"/><g fill="none" fill-rule="evenodd"><path fill="#40B6E0" fill-opacity=".6" d="M15 8A7 7 0 1 1 1 8a7 7 0 0 1 14 0"/><path fill="#231F20" fill-opacity=".7" d="M11.823 5.59l-1.737 1.738-1.414-1.414 1.738-1.737A2.503 2.503 0 0 0 9.5 4 2.5 2.5 0 0 0 7 6.5c0 .322.066.627.177.91l-3.005 3.004 1.414 1.414 3.006-3.005c.281.11.586.177.908.177A2.5 2.5 0 0 0 12 6.5c0-.322-.067-.627-.177-.91"/></g></svg>
